X:478
T:Caddam Woods
C:Joe Buchanan's Scottish Tome - Page 146.2
I:146 2
R:Polka
Z:Carl Allison
L:1/8
M:6/8
K:A
"A"e/e/e/e/ ^de | (fe) c2 | E/E/E/E/ Ac | "E7"(fe) d2 |
[1 d/d/d/d/ cd | (gf) "E7"d2 | gf dB | "A"(fe) c2 :|
[2 d/d/d/d/ cd | (gf) "E7"d2 | "E7"g/f/e/d/ "A"BA | AA A2 |]
"A"e/e/e/e/ cc | e/e/e/e/ cc | e2 (f>e) | "E7"(ed) d2 |
d/e/d/c/ BB | d/e/d/c/ BB | (gf) (g>f) | (fe) (fe) |
"A"ee e/f/e/d/ | "A"(dc) c | e2 (f>e) | "E7"(ed) d2 |
dd d/f/d/c/ | BB B2 | "A"e/e/e/e/ fg | a2 a2 |]
